!! J.S. Bach "Courante" from Suite No. 6, for violoncello.
!! From 'Bach Sonatas', Augener's Edition, 1919; pp.50-51
!! This file has been error-checked using the double-entry method.
!! NOTE: The repeats at bar 28 and at the end have been expanded
!!       in this encoding,
!! Percy Such (editor) gives the metronome marking as quarter-note equals 144.
**kern
*M3/4
8d
=1
8d
{16D
16E}
8F#'
8D'
8A'
8F#'
=2
8d'
8A'
8f#'
8d'
8a'
8cn'
=3
8B'
{16e
16f#}
8g'
8e'
8b'
8d'
=4
8c#'
{16A
16B}
8c#'
8A'
8e'
8G'
=5
8F#'
{16D
16E}
8F#'
8D'
8A'
8Cn'
=6
8BB'
{16GG
16AA}
8BB'
8GG'
8E'
8GG'
=7
8FF#'
8AA'
8D'
8GG'
8AA'
8C#'
=8
4D
8DD
8F#
{16G
16F#
16E
16D}
=9
8E
{16C#
16D}
8E
8AA
8A
8E
=10
8F#
{16D
16E}
8F#
8D
8A
8F#
=11
8d
{16B
16c#}
8d
8B
8f#
8A
=12
8G#
8B
8E
{16c#
16d
16e
16d
16c#
16B}
=13
8c#
8A
8EE
{16d
16e
16f#
16e
16d
16c#}
=14
8d
8B
8EE
{16c#
16d
16e
16d
16c#
16B}
=15
{16c#
16B
16A
16G#
16A
16G#
16A
16B
16c#
16B
16A
16G#}
=16
{16A
16G#
16F#
16E
16F#
16E
16F#
16G#
16A
16G#
16F#
16E}
=17
{16F#
16E
16D
16C#
16D
16C#
16D
16E
16F#
16E
16D
16C#}
=18
{16D
16C#
16BB
16AA
16BB
16C#
16D
16E
16F#
16G#
16A
16F#}
=19
{16G#
16F#
16E
16D
16E
16F#
16G#
16A
16B
16c#
16d
16B}
=20
8c#'
{16A
16B}
8c#
8A
8e
8c#
=21
8a
{16F#
16G#}
8A
8F#
8c#
8A
=22
8a
{16C#
16D}
8E
8C#
8A
8E
=23
{16F#
16E
16D
16C#
16D
16BB}
{16G#
16F#
16A
16G#
16F#
16E}
=24
{16B
16A
16G#
16F#
16G#
16E}
{16c#
16B
16d
16c#
16B
16A}
=25
{16e
16d
16c#
16B
16c#
16A}
{16f#
16e
16g
16f#
16e
16d}
=26
8b
{16g#
16a}
8b
8e
8g#
8d
=27
8c#
{16A
16B}
8c#
8E
8G#
8D
=28
2AA
8r
8d
=29
8d
{16D
16E}
8F#'
8D'
8A'
8F#'
=30
8d'
8A'
8f#'
8d'
8a'
8cn'
=31
8B'
{16e
16f#}
8g'
8e'
8b'
8d'
=32
8c#'
{16A
16B}
8c#'
8A'
8e'
8G'
=33
8F#'
{16D
16E}
8F#'
8D'
8A'
8Cn'
=34
8BB'
{16GG
16AA}
8BB'
8GG'
8E'
8GG'
=35
8FF#'
8AA'
8D'
8GG'
8AA'
8C#'
=36
4D
8DD
8F#
{16G
16F#
16E
16D}
=37
8E
{16C#
16D}
8E
8AA
8A
8E
=38
8F#
{16D
16E}
8F#
8D
8A
8F#
=39
8d
{16B
16c#}
8d
8B
8f#
8A
=40
8G#
8B
8E
{16c#
16d
16e
16d
16c#
16B}
=41
8c#
8A
8EE
{16d
16e
16f#
16e
16d
16c#}
=42
8d
8B
8EE
{16c#
16d
16e
16d
16c#
16B}
=43
{16c#
16B
16A
16G#
16A
16G#
16A
16B
16c#
16B
16A
16G#}
=44
{16A
16G#
16F#
16E
16F#
16E
16F#
16G#
16A
16G#
16F#
16E}
=45
{16F#
16E
16D
16C#
16D
16C#
16D
16E
16F#
16E
16D
16C#}
=46
{16D
16C#
16BB
16AA
16BB
16C#
16D
16E
16F#
16G#
16A
16F#}
=47
{16G#
16F#
16E
16D
16E
16F#
16G#
16A
16B
16c#
16d
16B}
=48
8c#'
{16A
16B}
8c#
8A
8e
8c#
=49
8a
{16F#
16G#}
8A
8F#
8c#
8A
=50
8a
{16C#
16D}
8E
8C#
8A
8E
=51
{16F#
16E
16D
16C#
16D
16BB}
{16G#
16F#
16A
16G#
16F#
16E}
=52
{16B
16A
16G#
16F#
16G#
16E}
{16c#
16B
16d
16c#
16B
16A}
=53
{16e
16d
16c#
16B
16c#
16A}
{16f#
16e
16g
16f#
16e
16d}
=54
8b
{16g#
16a}
8b
8e
8g#
8d
=55
8c#
{16A
16B}
8c#
8E
8G#
8D
=56
2AA
8r
8a
=57
8a
{16e
16d}
8c#
8e
8A
8c#
=58
8E
8A
8C#
8E
8AA
8GG
=59
8FF#
{16G
16F#}
8E
8d
8c#
8g
=60
8f#
8d
8D
{16f#
16e
16g
16f#
16e
16d}
=61
8e
8c#
8AA
{16e
16d
16f#
16e
16d
16c#}
=62
8d
8F#
8BB
{16C#
16D
16E
16D
16E
16F#
=63
16E
16F#
16G
16F#
16G
16A
16G
16A
16B
16c#
16d
16B}
=64
8c#
8G
8AA
{16BB
16C#
16D
16C#
16D
16E
=65
16D
16E
16F#
16E
16F#
16G
16F#
16G
16A
16B
16c#
16A}
=66
8B
8F#
8GG
{16AA
16BB
16C#
16BB
16C#
16D
=67
16C#
16D
16E
16D
16E
16F#
16E
16F#
16G
16A
16B
16G}
=68
{16E
16d
16c#
16B
16A#
16g
16f#
16e}
{16b
16a#
16g#
16f#}
=69
{8b
16an
16gn
16f#
16e
16d
16c#
16d
16c#
16e
16A#}
=70
{4B
8BB'}
{16B
16c#}
8d
8B
=71
8g#
8d
8b'
{16a
16g
16a
16g
16f#
16e}
=72
8g
{16c#
16d}
8e
8A
8gn
8c#
=73
8f#
8cn
8a
{16g
16f#
16g
16f#
16e
16d}
=74
8g
{16B
16cn}
8d
8G
8B
8F#
=75
8E
{16c#
16d}
8e
8A
8g
8D
=76
8C#
{16c#
16d}
8e
8A
8g
8AA
=77
8D
{16f#
16e
16g
16f#
16e
16d}
{16e
16d
16c#
16B}
=78
{16c#
16B
16A
16G}
{16A
16G
16F#
16E}
{16F#
16E
16D
16C#}
=79
8D
{16BB
16C#}
{16D
16E}
{16F#
16E}
{16G
16F#}
{16A
16G#}
=80
8A
{16C#
16D}
{16E
16F#}
{16G
16F#}
{16A
16G#}
{16B
16A#}
=81
8B
{16D
16E}
8F#
8B
8D#
8B
=82
8cn
{16E
16F#}
8G
8c
8E
8c#
=83
8d
{16F#
16G}
8A
{16A
16B}
8cn
{16a
16A}
=84
8GG
{16B
16A}
8B
{16B
16c#}
8d
{16b
16d}
=85
{16c#
16G
16c#
16e
8a}
{16G
16F#
16A
16G
16F#
16E}
=86
8F#
8d
8a
{16F#
16E
16G
16F#
16E
16D}
=87
8E
8c#
16a
{16G
16F#
16E
16D
16E
16F#
16G}
=88
{16F#
16G
16A
16B
16A
16B
16A
16G
16F#
16G
16A
16B}
=89
{16A
16B
16c#
16d
16c#
16d
16c#
16B
16A
16B
16c#
16d}
=90
{16c#
16d
16e
16f#
16e
16f#
16e
16d
16c#
16d
16e
16f#}
=91
{16e
16f#
16g
16a
16g
16f#
16e
16d
16c#
16B
16A
16G}
=92
8F#
{16D
16E}
8F#
8D
8A
8F#
=93
8d
{16BB
16C#}
8D
8BB
8F#
8D
=94
8d
{16FF#
16GG}
8AA
8FF#
8D
8AA
=95
{16BB
16AA
16GG
16FF#
16GG
16EE}
{16C#
16BB
16D
16C#
16BB
16AA}
=96
{16E
16D
16C#
16BB
16C#
16AA}
{16F#
16E
16G
16F#
16E
16D}
=97
{16A
16G
16F#
16E
16F#
16D}
{16B
16A
16cn
16B
16A
16G}
=98
8e
{16c#
16d}
8e
8A
8c#
8G
=99
8F#
{16D
16E}
8F#
8AA
8C#
8GG
=100
2DD
8r
8a
=101
8a
{16e
16d}
8c#
8e
8A
8c#
=102
8E
8A
8C#
8E
8AA
8GG
=103
8FF#
{16G
16F#}
8E
8d
8c#
8g
=104
8f#
8d
8D
{16f#
16e
16g
16f#
16e
16d}
=105
8e
8c#
8AA
{16e
16d
16f#
16e
16d
16c#}
=106
8d
8F#
8BB
{16C#
16D
16E
16D
16E
16F#
=107
16E
16F#
16G
16F#
16G
16A
16G
16A
16B
16c#
16d
16B}
=108
8c#
8G
8AA
{16BB
16C#
16D
16C#
16D
16E
=109
16D
16E
16F#
16E
16F#
16G
16F#
16G
16A
16B
16c#
16A}
=110
8B
8F#
8GG
{16AA
16BB
16C#
16BB
16C#
16D
=111
16C#
16D
16E
16D
16E
16F#
16E
16F#
16G
16A
16B
16G}
=112
{16E
16d
16c#
16B
16A#
16g
16f#
16e}
{16b
16a#
16g#
16f#}
=113
{8b
16an
16gn
16f#
16e
16d
16c#
16d
16c#
16e
16A#}
=114
{4B
8BB'}
{16B
16c#}
8d
8B
=115
8g#
8d
8b'
{16a
16g
16a
16g
16f#
16e}
=116
8a
{16c#
16d}
8e
8A
8gn
8c#
=117
8f#
8cn
8a
{16g
16f#
16g
16f#
16e
16d}
=118
8g
{16B
16cn}
8d
8G
8B
8F#
=119
8E
{16c#
16d}
8e
8A
8g
8D
=120
8C#
{16c#
16d}
8e
8A
8g
8AA
=121
8D
{16f#
16e
16g
16f#
16e
16d}
{16e
16d
16c#
16B}
=122
{16c#
16B
16A
16G}
{16A
16G
16F#
16E}
{16F#
16E
16D
16C#}
=123
8D
{16BB
16C#}
{16D
16E}
{16F#
16E}
{16G
16F#}
{16A
16G#}
=124
8A
{16C#
16D}
{16E
16F#}
{16G
16F#}
{16A
16G#}
{16B
16A#}
=125
8B
{16D
16E}
8F#
8B
8D#
8B
=126
8cn
{16E
16F#}
8G
8c
8E
8c#
=127
8d
{16F#
16G}
8A
{16A
16B}
8cn
{16a
16A}
=128
8GG
{16B
16A}
8B
{16B
16c#}
8d
{16b
16d}
=129
{16c#
16G
16c#
16e
8a}
{16G
16F#
16A
16G
16F#
16E}
=130
8F#
8d
8a
{16F#
16E
16G
16F#
16E
16D}
=131
8E
8c#
16a
{16G
16F#
16E
16D
16E
16F#
16G}
=132
{16F#
16G
16A
16B
16A
16B
16A
16G
16F#
16G
16A
16B}
=133
{16A
16B
16c#
16d
16c#
16d
16c#
16B
16A
16B
16c#
16d}
=134
{16c#
16d
16e
16f#
16e
16f#
16e
16d
16c#
16d
16e
16f#}
=135
{16e
16f#
16g
16a
16g
16f#
16e
16d
16c#
16B
16A
16G}
=136
8F#
{16D
16E}
8F#
8D
8A
8F#
=137
8d
{16BB
16C#}
8D
8BB
8F#
8D
=138
8d
{16FF#
16GG}
8AA
8FF#
8D
8AA
=139
{16BB
16AA
16GG
16FF#
16GG
16EE}
{16C#
16BB
16D
16C#
16BB
16AA}
=140
{16E
16D
16C#
16BB
16C#
16AA}
{16F#
16E
16G
16F#
16E
16D}
=141
{16A
16G
16F#
16E
16F#
16D}
{16B
16A
16cn
16B
16A
16G}
=142
8e
{16c#
16d}
8e
8A
8c#
8G
=143
8F#
{16D
16E}
8F#
8AA
8C#
8GG
=144
2DD
8r
==
*-
